X: 27784
T: Morpeth Rant, The
R: reel
M: 4/4
K: Dmajor
|:(3ABc|d2AG FDFA|BGBd cAce|dfaf gfed|cdec Agfe|
d2AG FDFA|BGBd cAce|dfaf gfec|A2d2 d2:|
|:A2|dfaf dfaf|gfga g2g2|gfed cdeg|fefg f2f2|
dfaf dfaf|gfga g2g2|gfed ceag|f2d2 d2:|

